X:1
T:Title
%%score { ( 1 3 ) | ( 2 4 ) }
L:1/8
M:4/4
K:Eb
V:1 treble nm="Grand Piano"
V:3 treble 
V:2 bass 
V:4 bass 
V:1
 z4 z2[Q:1/4=100] B,E | G4 z4 | E6 [B,B]2 | [Ge]3 [GB] [Ac][GB][B,E][B,EG] |[M:3/4] [B,DF]6 | %5
[M:1/4] D-[DG] |[M:4/4] [DA]3 [DA] [Ad][Ad][DF][Dc] | B6 z F | G3 G [CF][CE]CD |[M:3/4] E6 | %10
[M:1/4] EF |[M:4/4] G4 FEEG | [GB]4 [Ac][GB][EG][GB] | [Ge]4 cBGE |[M:3/4] [CF]2 C2 D2 | %15
[M:1/4] EF |[M:4/4] G4 FEEG | [GB]4 [Ac][GB][EG][GB] | [Ge]4 cBGE |[M:1/4] GE | %20
[M:3/4] [DF]2 [DG]2 E2 |] %21
V:2
 z4 z2 [E,G,][E,G,B,] | E2 z2 z4 | [G,B,]2 z2 z4 | [E,B,]3 [E,E] [E,E][E,E]G,E, |[M:3/4] B,,6 | %5
[M:1/4] z G, |[M:4/4] [B,,F,]3 [B,,F,] [B,,B,][B,,B,][B,,A,][B,,A,] | [E,G,E]6 G,A, | %8
 [E,B,E]3 [E,B,_D] [A,,A,][A,,A,][A,,F,][B,,A,B,] |[M:3/4] [E,G,B,]6 |[M:1/4] [E,G,][E,A,E] | %11
[M:4/4] [E,B,E]4 [E,A,E][E,G,][E,G,][E,B,E] | [E,E]4 [E,E][E,E][E,B,][E,B,] | %13
 [E,B,]4 [A,E][G,B,E][E,B,E][E,G,] |[M:3/4] [A,,A,]2 [A,,F,]2 [B,,A,B,]2 |[M:1/4] [E,G,][E,A,E] | %16
[M:4/4] [E,B,E]4 [E,A,E][E,G,][E,G,][E,B,E] | [E,E]4 [E,E][E,E][E,B,][E,B,] | %18
 [E,B,]4 [A,E][G,B,E][E,B,E][E,G,] |[M:1/4] [E,B,E][C,=A,] |[M:3/4] [B,,A,]2 [B,,B,]2 [E,G,]2 |] %21
V:3
 x8 | z2 _D2 [CF][CE]C=D | z2 C2 B,2 z A | x8 |[M:3/4] x6 |[M:1/4] [A,F] z |[M:4/4] x8 | z4 z2 E2 | %8
 x8 |[M:3/4] x6 |[M:1/4] x2 |[M:4/4] x8 | x8 | x8 |[M:3/4] x6 |[M:1/4] x2 |[M:4/4] x8 | x8 | x8 | %19
[M:1/4] x2 |[M:3/4] x6 |] %21
V:4
 x8 | [E,B,]4 [A,,A,][A,,A,][A,,F,A,][B,,A,B,] | E,2- [E,-A,]2 [E,G,]2 G,F, | x8 |[M:3/4] x6 | %5
[M:1/4] B,,2 |[M:4/4] x8 | z4 z2 E,2 | x8 |[M:3/4] x6 |[M:1/4] x2 |[M:4/4] x8 | x8 | x8 | %14
[M:3/4] x6 |[M:1/4] x2 |[M:4/4] x8 | x8 | x8 |[M:1/4] x2 |[M:3/4] x6 |] %21

